packages/dnb-eufemia/assets/icons/account_medium.svg

<svg width="24" height="24" viewBox="0 0 24 24" fill="none" xmlns="http://www.w3.org/2000/svg">
<path d="M8.25 7.5H15M14.6222 9.75H8.62781C6.25702 11.5195 3.75 14.4191 3.75 17.25C3.75 21.1675 5.69531 23.25 11.625 23.25C17.5547 23.25 19.5 21.1675 19.5 17.25C19.5 14.4191 16.993 11.5195 14.6222 9.75ZM16.5 0.75L7.5 2.25C7.5 2.25 9 3.06818 9 5.25H13.875C13.875 3.06818 16.5 0.75 16.5 0.75Z" stroke="black" stroke-width="1.5" stroke-linecap="round" stroke-linejoin="round"/>
<path d="M10.799 19.5H12.374L10.43 16.989L12.239 15H10.628L9.314 16.638V13.2H8V19.5H9.314V18.213L9.638 17.853L10.799 19.5Z" fill="black"/>
<path d="M15.45 14.91C14.874 14.91 14.379 15.216 14.127 15.684V15H12.957V19.5H14.271V17.043C14.271 16.386 14.658 16.044 15.423 16.044C15.612 16.044 15.783 16.062 15.918 16.089V14.964C15.837 14.937 15.657 14.91 15.45 14.91Z" fill="black"/>
</svg>

<svg width="24" height="24" viewBox="0 0 24 24" fill="none" xmlns="http://www.w3.org/2000/svg"><path d="M8.25 7.5H15m-.378 2.25H8.628c-2.371 1.77-4.878 4.67-4.878 7.5 0 3.918 1.945 6 7.875 6s7.875-2.082 7.875-6c0-2.83-2.507-5.73-4.878-7.5Zm1.878-9-9 1.5s1.5.818 1.5 3h4.875c0-2.182 2.625-4.5 2.625-4.5Z" stroke="#000" stroke-width="1.5" stroke-linecap="round" stroke-linejoin="round"/><path d="M10.799 19.5h1.575l-1.944-2.511L12.239 15h-1.611l-1.314 1.638V13.2H8v6.3h1.314v-1.287l.324-.36 1.161 1.647Zm4.651-4.59c-.576 0-1.071.306-1.323.774V15h-1.17v4.5h1.314v-2.457c0-.657.387-.999 1.152-.999.189 0 .36.018.495.045v-1.125a1.733 1.733 0 0 0-.468-.054Z" fill="#000"/></svg>
